contributed-vectors/good_lood.svg

<svg xmlns="http://www.w3.org/2000/svg" xml:space="preserve" style="fill-rule:evenodd;clip-rule:evenodd;stroke-linejoin:round;stroke-miterlimit:2" viewBox="0 0 192 192"><path d="M164.5 21.5c0-5.519-4.481-10-10-10h-133c-5.519 0-10 4.481-10 10v133c0 5.519 4.481 10 10 10h133c5.519 0 10-4.481 10-10v-133Z" style="fill:#fff" transform="translate(8 8)"/><path d="m96.364 111.476 22.012 43.288H74.352l22.012-43.288Z" style="fill:#fcecdc" transform="matrix(.7488 0 0 -.9455 23.843 246.773)"/><circle cx="80.121" cy="96" r="20.267" style="fill:#ff837d" transform="matrix(.81329 0 0 .81329 30.839 -10.964)"/><circle cx="80.121" cy="96" r="20.267" style="fill:#fcecdc" transform="matrix(.57497 0 0 .57497 49.933 11.914)"/><circle cx="80.121" cy="96" r="20.267" style="fill:#ff837d" transform="matrix(.36372 0 0 .36372 66.859 32.194)"/><circle cx="80.121" cy="96" r="20.267" style="fill:#fcecdc" transform="matrix(.14726 0 0 .14726 84.201 52.974)"/><circle cx="80.121" cy="96" r="20.267" style="fill:#ff837d" transform="matrix(.81329 0 0 .81329 43.037 11.055)"/><circle cx="80.121" cy="96" r="20.267" style="fill:#fcecdc" transform="matrix(.57497 0 0 .57497 62.132 33.933)"/><circle cx="80.121" cy="96" r="20.267" style="fill:#ff837d" transform="matrix(.36372 0 0 .36372 79.057 54.214)"/><circle cx="80.121" cy="96" r="20.267" style="fill:#fcecdc" transform="matrix(.14726 0 0 .14726 96.4 74.993)"/><circle cx="80.121" cy="96" r="20.267" style="fill:#ff837d" transform="matrix(.81329 0 0 .81329 18.64 11.055)"/><circle cx="80.121" cy="96" r="20.267" style="fill:#fcecdc" transform="matrix(.57497 0 0 .57497 37.734 33.933)"/><circle cx="80.121" cy="96" r="20.267" style="fill:#ff837d" transform="matrix(.36372 0 0 .36372 54.66 54.214)"/><circle cx="80.121" cy="96" r="20.267" style="fill:#fcecdc" transform="matrix(.14726 0 0 .14726 72.003 74.993)"/></svg>

<?xml version="1.0" encoding="UTF-8" standalone="no"?>
<!DOCTYPE svg PUBLIC "-//W3C//DTD SVG 1.1//EN" "http://www.w3.org/Graphics/SVG/1.1/DTD/svg11.dtd">
<svg width="100%" height="100%" viewBox="0 0 192 192" version="1.1" xmlns="http://www.w3.org/2000/svg" xmlns:xlink="http://www.w3.org/1999/xlink" xml:space="preserve" xmlns:serif="http://www.serif.com/" style="fill-rule:evenodd;clip-rule:evenodd;stroke-linejoin:round;stroke-miterlimit:2;">
    <g id="Layer1">
        <g transform="matrix(1,0,0,1,8,8)">
            <path d="M164.5,21.5C164.5,15.981 160.019,11.5 154.5,11.5L21.5,11.5C15.981,11.5 11.5,15.981 11.5,21.5L11.5,154.5C11.5,160.019 15.981,164.5 21.5,164.5L154.5,164.5C160.019,164.5 164.5,160.019 164.5,154.5L164.5,21.5Z" style="fill:white;"/>
        </g>
        <g transform="matrix(0.706034,0,0,0.706034,28.2208,17.9825)">
            <g transform="matrix(1.06057,-3.41199e-17,3.41199e-17,-1.33918,-6.20024,324.05)">
                <path d="M96.364,111.476L118.376,154.764L74.352,154.764L96.364,111.476Z" style="fill:rgb(252,236,220);"/>
            </g>
            <g transform="matrix(1.06057,0,0,1.06057,-5.42892,-2.68894)">
                <g transform="matrix(1,0,0,1,-0.363636,-4)">
                    <g transform="matrix(1.08612,0,0,1.08612,8.9784,-32.1225)">
                        <circle cx="80.121" cy="96" r="20.267" style="fill:rgb(255,131,125);"/>
                    </g>
                    <g transform="matrix(0.767855,0,0,0.767855,34.4785,-1.56866)">
                        <circle cx="80.121" cy="96" r="20.267" style="fill:rgb(252,236,220);"/>
                    </g>
                    <g transform="matrix(0.485733,0,0,0.485733,57.0825,25.5151)">
                        <circle cx="80.121" cy="96" r="20.267" style="fill:rgb(255,131,125);"/>
                    </g>
                    <g transform="matrix(0.196661,0,0,0.196661,80.2432,53.266)">
                        <circle cx="80.121" cy="96" r="20.267" style="fill:rgb(252,236,220);"/>
                    </g>
                </g>
                <g>
                    <g transform="matrix(1.08612,0,0,1.08612,24.9057,-6.71643)">
                        <circle cx="80.121" cy="96" r="20.267" style="fill:rgb(255,131,125);"/>
                    </g>
                    <g transform="matrix(0.767855,0,0,0.767855,50.4058,23.8374)">
                        <circle cx="80.121" cy="96" r="20.267" style="fill:rgb(252,236,220);"/>
                    </g>
                    <g transform="matrix(0.485733,0,0,0.485733,73.0097,50.9211)">
                        <circle cx="80.121" cy="96" r="20.267" style="fill:rgb(255,131,125);"/>
                    </g>
                    <g transform="matrix(0.196661,0,0,0.196661,96.1705,78.672)">
                        <circle cx="80.121" cy="96" r="20.267" style="fill:rgb(252,236,220);"/>
                    </g>
                </g>
                <g>
                    <g transform="matrix(1.08612,0,0,1.08612,-7.67615,-6.71643)">
                        <circle cx="80.121" cy="96" r="20.267" style="fill:rgb(255,131,125);"/>
                    </g>
                    <g transform="matrix(0.767855,0,0,0.767855,17.824,23.8374)">
                        <circle cx="80.121" cy="96" r="20.267" style="fill:rgb(252,236,220);"/>
                    </g>
                    <g transform="matrix(0.485733,0,0,0.485733,40.4279,50.9211)">
                        <circle cx="80.121" cy="96" r="20.267" style="fill:rgb(255,131,125);"/>
                    </g>
                    <g transform="matrix(0.196661,0,0,0.196661,63.5887,78.672)">
                        <circle cx="80.121" cy="96" r="20.267" style="fill:rgb(252,236,220);"/>
                    </g>
                </g>
            </g>
        </g>
    </g>
</svg>
